X:1
T:Caledonian Society of London's Strathspey, The
M:C
L:1/8
R:Pipe Strathspey
B:William Ross - Ross's Collection of Pipe Music (1869, No. 147, p. 112)
Z:AK/Fiddler's Companion
K:Amix
a|e>Af>A e>Ac<a|e>Ac>A c<ee>a|f>Bd>B f>Bd>e|
f>Bd>B d<ff>a|e>Af>A e>Ac<a|e>Ac>A c<ee>c|
d>fd>f c/<c/ec/<c/e|B/<B/ec/<c/e d>fe/f/g||
a>ga>f e/f/ga>f|e>Ac>A c<eef/g/|a>ga>f e<ca>e|
f>Bd>B d<ffg|a>ga>f e/f/ga>f|eA(3AAA c<ee>c|
d<fd<f c<ec<e|B<ec>e d<f f||

